!!!COM: Bach, Johann Sebastian
!!!CDT: 1685/3//-1750/7/28/
!!!OTL@@DE: Ich dank' dir, lieber Herre
!!!OTL@EN:  I thank Thee, dear Lord
!!!AGN: 4-Part Chorale
!!!SCT: Erk 002
!!!SCT: BWV 347
!!!YEC: Copyright 2001 by Craig Stuart Sapp
!!!license: GNU General Public License (http://www.gnu.org/copyleft/gpl.html)
!!!SMA: 371 Bach Chorales, edited by Ludwig Erk, C.F. Peters
!!!PDT: 1850, 1865
!!!ONB: Harmony and Root analysis done manually by Craig Sapp (not proofed yet)
**xkern	**xkern	**xkern	**xkern	**root	**harm	**kern
*Iorgan	*Iorgan	*Iorgan	*Iorgan	*Iorgan	*	*Iorgan
!bass	!tenor	!alto	!sprno	!	!	!
*clefF4	*clefF4	*clefG2	*clefG2	*	*	*
*k[f#c#g#]	*k[f#c#g#]	*k[f#c#g#]	*k[f#c#g#]	*k[f#c#g#]	*k[f#c#g#]	*k[f#c#g#]
*A:	*A:	*A:	*A:	*A:	*A:	*A:
*met(C)	*met(C)	*met(C)	*met(C)	*met(C)	*met(C)	*met(C)
*M4/4	*M4/4	*M4/4	*M4/4	*M4/4	*M4/4	*M4/4
*MM60	*MM60	*MM60	*MM60	*MM60	*MM60	*MM60
*>[A,A,B]	*>[A,A,B]	*>[A,A,B]	*>[A,A,B]	*>[A,A,B]	*>[A,A,B]	*>[A,A,B]
*>A	*>A	*>A	*>A	*>A	*>A	*>A
8A	4c#	4e	4a	4AA	I	4A 4cc# 4ee
8G#	.	.	.	.	.	.
=1	=1	=1	=1	=1	=1	=1
4F#	4c#	4f#	4a	4FF#	vi	4F# 4a 4cc#
4C#	8c#	4e	4a	4AA	Ib	4a 4C# 4ee
.	8B	.	.	.	.	.
4D	8A	4f#	4a	4DD	IV	4D 4f# 4a
.	8G#	.	.	.	.	.
4D#	4F#	4f#	4b	4BB	Vb/V	4b 4D# 4ff#
=2	=2	=2	=2	=2	=2	=2
4E	4.B	4e	4gn	4EE	v	4E 4g 4b
4BB	.	4d#	4f#	4BB	V7/V	4B 4dd# 4ff# 4aa
.	8A	.	.	.	.	.
4EE;	4G#y;	4B;	4e;	4EE;	V;	4E; 4g#; 4b;
4E	4e	4g#y	4b	4EE	V	4E 4g# 4b
=3	=3	=3	=3	=3	=3	=3
4A	4e	4a	4cc#	4AA	I	4A 4cc# 4ee
4B	4d#	8g#	4b	4BB	V/V	4B 4dd# 4ff#
.	.	8f#	.	.	.	.
4c#	2c#	[2e	4a	4AA	Ib	4a 4C# 4ee
8B	.	.	8g#	8CC#	V7c/VI	8c# 8e# 8G# 8b
8A	.	.	8f#	8FF#	vi7b	8f# 8A 8cc# 8ee
=4	=4	=4	=4	=4	=4	=4
4B	4.B	4e]	4g#	4EE	V	4E 4g# 4b
4BB	.	4d#	4f#	4BB	V7/V	4B 4dd# 4ff# 4aa
.	8A	.	.	.	.	.
4E;	4G#;	4B;	4e;	4EE;	V;	4E; 4g#; 4b;
=:|!	=:|!	=:|!	=:|!	=:|!	=:|!	=:|!
*>B	*>B	*>B	*>B	*>B	*>B	*>B
4C#	4G#	8cc#	4ee	4CC#	iii	4C# 4e 4g#
.	.	8b	.	.	.	.
=5	=5	=5	=5	=5	=5	=5
8F#	8A	4a	4dd	4DD	IVb	4d 4F# 4a
8G#	8B	.	.	.	.	.
4A	8c#	4a	4cc#	4AA	I	4A 4cc# 4ee
.	8d	.	.	.	.	.
4E	4e	4g#	4b	4EE	V	4E 4g# 4b
8C#	4e	8a	4a	8AA	Ib	8a 8C# 8ee
8AA	.	8gn	.	8AA	V7/IV	8A 8cc# 8ee 8gg
=6	=6	=6	=6	=6	=6	=6
4D	4d	8f#	8a	4DD	IV	4D 4f# 4a
.	.	8g#y	8b	.	.	.
8C#	4e	4a	4cc#	4AA	Ib	4a 4C# 4ee
8D	.	.	.	.	.	.
4E;	4e;	4g#;	4b;	4EE;	V;	4E; 4g#; 4b;
4C#	4e	4a#	4cc#	4AA#	viio/II	4A# 4cc# 4ee
=7	=7	=7	=7	=7	=7	=7
4BB	8f#	8b	4dd	8BB	ii	8B 8dd 8ff#
.	4B	8an	.	8BB	ii7	8B 8dd 8ff# 8aa
4C#	.	4gn	4cc#	4AA#	viiD7b/II	4a# 4C# 4ee# 4gg
.	8A#	.	.	.	.	.
8D	4B	8f#	4b	8BB	iib	8b 8D 8ff#
8Gn	.	8e	.	8EE	v	8E 8g 8b
4F#	4c#	4f#	4a#	4FF#	V/II	4F# 4a# 4cc#
=8	=8	=8	=8	=8	=8	=8
2.BB;	2.d;	2.f#;	2.b;	2.BB;	ii;	2.B; 2.dd; 2.ff#;
4C#	4G#	8e	4e	4CC#	iii	4C# 4e 4g#
.	.	8d	.	.	.	.
=9	=9	=9	=9	=9	=9	=9
4F#	4A	4c#	4a	4FF#	vi	4F# 4a 4cc#
8E	8G#	4d	4b	8EE	V7	8E 8g# 8b 8dd
8D	8F#	.	.	8BB	iib	8b 8D 8ff#
4C#	8E	4e	4cc#	4CC#	iii	4C# 4e 4g#
.	8e	.	.	.	.	.
4BB	4d	8f#	4dd	8BB	ii	8B 8dd 8ff#
.	.	8g#	.	8GG#	viiob	8g# 8B 8dd
=10	=10	=10	=10	=10	=10	=10
8AA	8c#	2a	4ee	4AA	I	4A 4cc# 4ee
8BB	8d	.	.	.	.	.
8C#	8e	.	8dd	8AA	I9b	8a 8C# 8ee
8D	8f#	.	8cc#	8DD	IV7	8D 8f# 8a 8cc#
4E;	4g#;	4e;	4b;	4EE;	V;	4E; 4g#; 4b;
4BB	4f#	4b	4dd	4BB	ii	4B 4dd 4ff#
=11	=11	=11	=11	=11	=11	=11
8F#	8f#	8a	4cc#	8FF#	vi	8F# 8a 8cc#
8G#	8e	8g#	.	8CC#	iiic	8c# 8e 8G#
4A	8d	4f#	4b	4BB	ii7d	4b 4dd 4ff# 4A
.	8c#	.	.	.	.	.
8G#	4B	4e	4.ee	4EE	Vb	4e 4G# 4b
8E	.	.	.	.	.	.
[4A	8c#	8f#	.	8FF#	vi7b	8f# 8A 8cc# 8ee
.	8d	8g#	8dd	8GG#	viioc	8g# 8b 8D
=12	=12	=12	=12	=12	=12	=12
8A]	4.e	2a	8cc#	4AA	I	4A 4cc# 4ee
8G#	.	.	8b	.	.	.
4F#	.	.	8a	4BB	ii7c	4b 4dd 4F# 4aa
.	8d	.	8b	.	.	.
8E	8c#	4a	4cc#	8AA	Ic	8a 8cc# 8E
8D	8f#	.	.	8DD	IV7	8D 8f# 8a 8cc#
4E	8B	4g#	4b	4EE	V	4E 4g# 4b
.	16e	.	.	.	.	.
.	16d	.	.	.	.	.
=13	=13	=13	=13	=13	=13	=13
2.AA;	2.c#;	2.e;	2.a;	2.AA;	I;	2.A; 2.cc#; 2.ee;
==	==	==	==	==	==	==
*-	*-	*-	*-	*-	*-	*-
